public/full-logo-black.svg

<?xml version="1.0" encoding="UTF-8"?>
<svg width="1100px" height="328px" viewBox="0 0 1100 328" version="1.1" xmlns="http://www.w3.org/2000/svg" xmlns:xlink="http://www.w3.org/1999/xlink">
    <!-- Generator: Sketch 52.6 (67491) - http://www.bohemiancoding.com/sketch -->
    <title>full-logo-black</title>
    <desc>Created with Sketch.</desc>
    <g id="Page-1" stroke="none" stroke-width="1" fill="none" fill-rule="evenodd">
        <g id="full-logo-black">
            <polygon id="Path" fill="#000000" points="318.89 220.33 388.39 220.33 388.39 234.13 299.09 234.13 299.09 225.33 367.59 99.93 300.09 99.93 300.09 86.13 387.39 86.13 387.39 94.93"></polygon>
            <path d="M517.39,234.13 L502.69,186.23 L448.79,186.23 L434.19,234.13 L418.89,234.13 L464.99,86.13 L486.89,86.13 L532.99,234.13 L517.39,234.13 Z M453,172.63 L498.6,172.63 L475.79,98 L453,172.63 Z" id="Shape" fill="#000000" fill-rule="nonzero"></path>
            <path d="M572.29,87.83 C583.07061,85.7627245 594.013721,84.6583738 604.99,84.53 C623.256667,84.53 636.923333,88.6633333 645.99,96.93 C655.056667,105.196667 659.59,117.963333 659.59,135.23 C659.59,168.83 640.756667,185.63 603.09,185.63 C597.556667,185.63 592.423333,185.396667 587.69,184.93 L587.69,234.13 L572.29,234.13 L572.29,87.83 Z M634.39,163.48 C640.99,157.513333 644.29,148.23 644.29,135.63 C644.29,122.43 641.19,112.813333 634.99,106.78 C628.79,100.746667 619.123333,97.7466667 605.99,97.78 C599.863055,97.7748652 593.744863,98.2429236 587.69,99.18 L587.69,171.58 C592.964571,172.227884 598.276009,172.528531 603.59,172.48 C617.523333,172.446667 627.79,169.446667 634.39,163.48 Z" id="Shape" fill="#000000" fill-rule="nonzero"></path>
            <path d="M712.79,218.13 C701.523333,206.196667 695.89,186.963333 695.89,160.43 C695.89,134.496667 701.756667,115.313333 713.49,102.88 C725.223333,90.4466667 742.09,84.23 764.09,84.23 C773.292822,84.1731037 782.465801,85.2819253 791.39,87.53 L791.39,112.63 C783.230429,110.485086 774.826755,109.409416 766.39,109.43 C757.456667,109.43 750.123333,111.03 744.39,114.23 C738.656667,117.43 734.306667,122.746667 731.34,130.18 C728.406667,137.613333 726.94,147.563333 726.94,160.03 C726.94,172.896667 728.373333,183.03 731.24,190.43 C734.106667,197.83 738.36,203.08 744,206.18 C749.7,209.28 757.083333,210.83 766.15,210.83 C773.15,210.83 781.55,209.263333 791.35,206.13 L791.35,231.23 C786.925981,232.842101 782.353899,234.014429 777.7,234.73 C772.560996,235.588298 767.360182,236.023093 762.15,236.03 C740.51,236.01 724.056667,230.043333 712.79,218.13 Z" id="Path" fill="#000000"></path>
            <polygon id="Path" fill="#000000" points="938.59 86.13 975 86.13 975 234.13 947.4 234.13 947.4 128.23 914.7 212.73 891 212.73 858.3 130.63 858.3 234.13 830.7 234.13 830.7 86.13 867.1 86.13 903.4 179.83"></polygon>
            <path d="M1028,234.53 C1022.17317,233.658941 1016.44578,232.218719 1010.9,230.23 L1010.9,205.23 C1022.02414,208.962748 1033.6668,210.920064 1045.4,211.03 C1061.86667,211.03 1070.1,205.196667 1070.1,193.53 C1070.45711,187.72688 1067.36035,182.258537 1062.2,179.58 C1058.40221,177.400035 1054.37854,175.63968 1050.2,174.33 L1040.2,171.03 C1029.86667,167.496667 1021.78333,162.263333 1015.95,155.33 C1010.11667,148.396667 1007.2,139.596667 1007.2,128.93 C1007.2,119.596667 1009.26667,111.596667 1013.4,104.93 C1017.53333,98.2633333 1023.71667,93.1466667 1031.95,89.58 C1040.18333,86.0133333 1050.36667,84.23 1062.5,84.23 C1067.93234,84.2202082 1073.35985,84.554209 1078.75,85.23 C1083.43517,85.7849004 1088.06722,86.7213437 1092.6,88.03 L1092.6,113.03 C1083.73761,110.422045 1074.53773,109.141477 1065.3,109.23 C1046.5,109.23 1037.1,115.03 1037.1,126.63 C1037.01791,129.254831 1037.56659,131.861064 1038.7,134.23 C1039.99127,136.531379 1041.87248,138.447102 1044.15,139.78 C1047.57107,141.802827 1051.21114,143.429952 1055,144.63 L1064.9,147.93 C1076.3,151.796667 1084.98333,157.146667 1090.95,163.98 C1096.91667,170.813333 1099.9,179.796667 1099.9,190.93 C1099.9,200.196667 1097.78333,208.213333 1093.55,214.98 C1089.11319,221.920977 1082.68196,227.358765 1075.1,230.58 C1067.03333,234.193333 1057.33333,236 1046,236 C1039.97085,235.980109 1033.95249,235.48861 1028,234.53 Z" id="Path" fill="#000000"></path>
            <path d="M23.74,206.72 C24.9963738,208.08573 26.796932,208.819155 28.65,208.72 L68.87,206.82 L36.19,316.4 C35.3388743,319.018799 36.341539,321.883556 38.64,323.4 C40.7469811,324.947026 43.033644,326.233064 45.45,327.23 C48.26,328.23 51.76,328.86 56.22,324.23 L199.22,170.03 C201.093795,167.542813 200.872969,164.060563 198.7,161.83 L198.65,161.78 L198.59,161.72 L198.54,161.67 L198.48,161.61 L198.43,161.56 L198.37,161.51 L198.32,161.46 L198.26,161.4 L198.21,161.35 L198.16,161.3 L198.1,161.24 L198.05,161.19 L197.99,161.14 L198,161 L197.94,160.94 L197.89,160.89 L197.83,160.83 L197.78,160.78 L197.73,160.73 L197.68,160.68 L197.62,160.62 L197.57,160.57 L197.51,160.51 L197.46,160.46 L197.41,160.41 L197.25,160.25 L197.2,160.2 L197.14,160.14 L197.09,160.09 L197.04,160.04 L196.99,159.99 L196.93,159.93 L196.88,159.88 L196.82,159.82 L196.77,159.77 L196.71,159.72 L196.66,159.67 L196.6,159.61 L196.54,159.56 L196.49,159.51 L196.43,159.45 L196.38,159.4 L196.32,159.35 L196.27,159.3 L196.21,159.24 L196.15,159.19 L196.09,159.13 L196.04,159.08 L196,159 L195.95,158.95 L195.89,158.89 L195.84,158.84 L195.78,158.78 L195.73,158.73 L195.68,158.68 L195.63,158.63 L195.57,158.57 L195.52,158.52 L195.47,158.47 L195.41,158.41 L195.36,158.36 L195.31,158.31 L195.26,158.26 L195.2,158.2 L195.15,158.15 L195,158 L194.95,157.95 L194.9,157.9 L194.79,157.79 L194.73,157.73 L194.68,157.68 L194.63,157.63 L194.58,157.58 L194.52,157.52 L194.47,157.47 L194.41,157.42 L194.35,157.36 L194.3,157.31 L194.25,157.26 L194.2,157.21 L194.14,157.15 L194.09,157.1 L194,157 L193.95,156.95 L193.89,156.9 L193.84,156.85 L193.78,156.79 L193.73,156.74 L193.67,156.68 L193.62,156.63 L193.51,156.52 L193.45,156.46 L193.4,156.41 L193.35,156.36 L193.29,156.3 L193.24,156.25 L193.19,156.2 L193.14,156.15 L193.08,156.09 L193.03,156.04 L192.97,155.98 L192.92,155.93 L192.87,155.88 L192.82,155.83 L192.76,155.77 L192.71,155.72 L192.66,155.67 L192.6,155.61 L192.55,155.56 L192.5,155.51 L192.45,155.46 L192.39,155.4 L192.34,155.35 L192.28,155.29 L192.23,155.24 L192.17,155.19 L192.12,155.14 L192.06,155.08 L192,155.03 L191.94,154.97 L191.89,154.92 L191.84,154.87 L191.79,154.82 L191.73,154.76 L191.68,154.71 L191.62,154.66 L191.56,154.6 L191.51,154.55 L191.46,154.5 L191.41,154.45 L191.35,154.39 L191.3,154.34 L191.24,154.28 L191.19,154.23 L191.14,154.18 L191.09,154.13 L191,154 L190.95,153.95 L190.89,153.89 L190.84,153.84 L190.79,153.79 L190.74,153.74 L190.69,153.68 L190.63,153.63 L190.52,153.52 L190.47,153.47 L190.42,153.42 L190.31,153.31 L190.25,153.26 L190.19,153.2 L190.14,153.15 L190.09,153.1 L190,153 L189.94,152.94 L189.89,152.89 L189.83,152.83 L189.78,152.78 L189.72,152.73 L189.67,152.68 L189.61,152.62 L189.56,152.57 L189.51,152.52 L189.45,152.46 L189.4,152.41 L189.34,152.36 L189.29,152.31 L189.23,152.25 L189.18,152.2 L189.12,152.14 L189.07,152.09 L189,152 L188.95,151.95 L188.89,151.89 L188.84,151.84 L188.79,151.79 L188.73,151.73 L188.68,151.68 L188.63,151.63 L188.58,151.58 L188.52,151.52 L188.47,151.47 L188.41,151.41 L188.36,151.36 L188.31,151.31 L188.26,151.26 L188.2,151.2 L188.15,151.15 L188.09,151.09 L188.04,151.04 L187.98,150.99 L187.93,150.94 L187.87,150.88 L187.81,150.83 L187.76,150.78 L187.7,150.72 L187.65,150.67 L187.59,150.62 L187.54,150.57 L187.48,150.51 L187.42,150.46 L187.36,150.4 L187.31,150.35 L187.26,150.3 L187.21,150.25 L187.15,150.19 L187.1,150.14 L187.04,150.08 L187,150 L186.95,149.95 L186.9,149.9 L186.84,149.84 L186.79,149.79 L186.74,149.74 L186.68,149.68 L186.63,149.63 L186.58,149.58 L186.53,149.53 L186.47,149.47 L186.42,149.42 L186.36,149.36 L186.31,149.31 L186.26,149.26 L186.21,149.21 L186.16,149.15 L186.1,149.1 L186,149 L185.95,148.95 L185.9,148.9 L185.85,148.85 L185.79,148.79 L185.74,148.74 L185.68,148.69 L185.62,148.63 L185.57,148.58 L185.52,148.53 L185.47,148.48 L185.41,148.42 L185.25,148.26 L185.19,148.21 L185.14,148.16 L185.08,148.1 L185,148 L184.95,147.95 L184.89,147.89 L184.84,147.84 L184.78,147.79 L184.73,147.74 L184.67,147.68 L184.62,147.63 L184.56,147.57 L184.51,147.52 L184.46,147.47 L184.41,147.42 L184.3,147.31 L184.24,147.25 L184.19,147.2 L184.14,147.15 L184.03,147.04 L183.98,146.99 L183.93,146.94 L183.87,146.88 L183.82,146.83 L183.77,146.78 L183.72,146.73 L183.66,146.67 L183.61,146.62 L183.55,146.56 L183.5,146.51 L183.44,146.46 L183.39,146.41 L183.33,146.35 L183.27,146.3 L183.21,146.24 L183.16,146.19 L183.11,146.14 L183.06,146.09 L183,146.03 L182.95,145.98 L182.89,145.93 L182.83,145.87 L182.78,145.82 L182.73,145.77 L182.68,145.72 L182.62,145.66 L182.57,145.61 L182.51,145.55 L182.46,145.5 L182.41,145.45 L182.36,145.4 L182.3,145.34 L182.25,145.29 L182.19,145.23 L182.14,145.18 L182.09,145.13 L182,145 L181.95,144.95 L181.89,144.89 L181.84,144.84 L181.78,144.78 L181.73,144.73 L181.68,144.68 L181.63,144.63 L181.58,144.57 L181.52,144.52 L181.46,144.46 L181.41,144.41 L181.36,144.36 L181.31,144.31 L181.25,144.25 L181.2,144.2 L181,144 L180.95,143.95 L180.9,143.9 L180.84,143.84 L180.79,143.79 L180.73,143.73 L180.68,143.68 L180.62,143.63 L180.57,143.58 L180.51,143.52 L180.46,143.47 L180.4,143.41 L180.35,143.36 L180.3,143.31 L180.25,143.26 L180.19,143.2 L180.14,143.15 L180.09,143.1 L180.03,143.04 L179.98,142.99 L179.93,142.94 L179.88,142.89 L179.82,142.83 L179.77,142.78 L179.71,142.72 L179.66,142.67 L179.61,142.62 L179.56,142.57 L179.5,142.51 L179.45,142.46 L179.39,142.4 L179.34,142.35 L179.28,142.3 L179.23,142.25 L179.17,142.19 L179.11,142.14 L179.06,142.09 L179,142.03 L178.95,141.98 L178.89,141.93 L178.84,141.88 L178.78,141.82 L178.72,141.77 L178.66,141.71 L178.55,141.6 L178.5,141.55 L178.44,141.49 L178.39,141.44 L178.33,141.39 L178.27,141.33 L178.22,141.28 L178.17,141.23 L178.06,141.12 L178,141 L177.94,140.94 L177.89,140.89 L177.78,140.78 L177.72,140.72 L177.67,140.67 L177.61,140.61 L177.56,140.56 L177.51,140.51 L177.46,140.46 L177.41,140.4 L177.35,140.35 L177.3,140.3 L177.24,140.24 L177.19,140.19 L177.14,140.14 L177.09,140.09 L177,140 L176.94,139.95 L176.88,139.89 L176.83,139.84 C175.573626,138.47427 173.773068,137.740845 171.92,137.84 L131.7,139.74 L164.35,30.18 C165.075426,27.9655799 164.473662,25.5313441 162.8,23.91 L162.74,23.85 L162.69,23.8 L162.63,23.74 L162.58,23.69 L162.53,23.64 L162.48,23.59 L162.42,23.53 L162.37,23.48 L162.32,23.43 L162.26,23.37 L162.21,23.32 L162.16,23.27 L162.1,23.21 L162.05,23.16 L162,23.11 L161.94,23.05 L161.89,23 L161.84,22.95 L161.79,22.9 L161.57,22.68 L161.52,22.63 L161.47,22.58 L161.2,22.31 L161.15,22.26 L161.09,22.2 L160.76,21.87 L160.7,21.81 L160.65,21.76 L160.59,21.7 L160.54,21.65 L160.38,21.49 L160.33,21.44 L160.28,21.39 L160.17,21.28 L160.12,21.23 L160.06,21.18 L160,21.12 L159.84,20.96 L159.79,20.91 L159.74,20.86 L159.68,20.8 L159.63,20.75 L159.58,20.7 L159.47,20.59 L159.42,20.54 L159.26,20.38 L159.15,20.27 L159.09,20.22 L159.04,20.17 L158.98,20.11 L158.93,20.06 L158.82,19.95 L158.77,19.9 L158.71,19.85 L158.49,19.63 L158.44,19.58 L158.39,19.53 L158.33,19.47 L158.22,19.36 L158.16,19.3 L158.05,19.19 L157.89,19.03 L157.83,18.97 L157.67,18.81 L157.61,18.75 L157.5,18.64 L157.44,18.58 L157.39,18.53 L157.23,18.37 L157.18,18.32 L157.07,18.21 L156.96,18.1 L156.9,18.04 L156.85,17.99 L156.79,17.93 L156.68,17.82 L156.63,17.77 L156.57,17.71 L156.52,17.66 L156.36,17.5 L156.3,17.45 L156.25,17.4 L156.03,17.18 L155.98,17.13 L155.92,17.08 L155.81,16.97 L155.7,16.86 L155.65,16.81 L155.6,16.76 L155.54,16.7 L155.43,16.59 L155.32,16.48 L155.21,16.37 L155.15,16.31 L154.9,16 L154.68,15.78 L154.63,15.73 L154.57,15.67 L154.52,15.62 L154.36,15.46 L154.25,15.35 L154.2,15.3 L154.15,15.25 L154.09,15.2 L154.03,15.14 L153.98,15.09 L153.92,15.03 L153.87,14.98 L153.82,14.93 L153.77,14.88 L153.71,14.82 L153.66,14.77 L153.61,14.72 L153.45,14.56 L153.4,14.51 L153.24,14.35 L153.19,14.3 L153.14,14.25 L153.09,14.2 L153.03,14.14 L152.98,14.09 L152.92,14.03 L152.86,13.98 L152.81,13.93 L152.76,13.88 L152.65,13.77 L152.6,13.72 L152.54,13.66 L152.48,13.61 L152.43,13.56 L152.32,13.45 L152.27,13.4 L152.21,13.34 L152.16,13.29 L152.1,13.24 L152,13.1 L151.94,13.04 L151.89,12.99 L151.84,12.94 L151.78,12.88 L151.73,12.83 L151.67,12.78 L151.61,12.72 L151.56,12.67 L151.51,12.62 L151.45,12.56 L151.4,12.51 L151.35,12.46 L151.29,12.41 L151.23,12.35 L151.18,12.3 L151.12,12.24 L151.06,12.19 L151.01,12.14 L150.96,12.09 L150.9,12 L150.85,11.95 L150.8,11.9 L150.74,11.84 L150.68,11.79 L150.63,11.74 L150.57,11.68 L150.52,11.63 L150.08,11.19 L150.03,11.14 L149.98,11.09 L149.87,10.98 L149.82,10.93 L149.77,10.88 L149.61,10.72 L149.55,10.67 L149.49,10.61 L149.44,10.56 L149.38,10.5 L149.22,10.34 L149.16,10.28 L149.11,10.23 L149.05,10.17 L148.78,9.9 L148.73,9.85 L148.67,9.79 L148.62,9.74 L148.57,9.69 L148.41,9.53 L148.35,9.47 L148.29,9.42 L148.24,9.37 L148.19,9.32 L148,9.1 L147.94,9 L147.88,9 L147.83,8.95 L147.61,8.73 L147.56,8.68 L147.45,8.57 L147.39,8.51 L147.34,8.46 L147.23,8.35 L147.18,8.3 L147.12,8.25 L146.96,8.09 L146.89,8 L146.84,7.95 L146.79,7.9 L146.68,7.79 L146.63,7.74 L146.57,7.68 L146.51,7.63 L146.35,7.47 L146.3,7.42 L146.24,7.36 L146.19,7.31 L146.13,7.26 L146.08,7.21 L146,7.12 L146,7.07 L145.91,7 L145.85,7 L145.8,6.95 L145.74,6.9 L145.69,6.85 L145.63,6.79 L145.58,6.74 L145.52,6.68 L145.47,6.63 L145.42,6.58 L145.36,6.53 L145.3,6.47 L145.25,6.42 L145.2,6.37 L145.14,6.31 L145.09,6.26 L145,6.13 L145,6.08 L144.92,6 L144.86,6 L144.8,5.94 L144.69,5.83 L144.64,5.78 L144.58,5.72 L144.47,5.61 L144.42,5.56 L144.37,5.51 L144.32,5.46 L144.26,5.4 L144.21,5.35 L144.16,5.3 L144.1,5.24 L144,5.15 L144,5.09 L143.93,5 L143.88,5 L143.72,4.84 L143.67,4.79 L143.62,4.74 L143.56,4.68 L143.51,4.63 L143.45,4.57 L143.4,4.52 L143.34,4.47 L143.29,4.42 L143.23,4.36 L143.18,4.31 L143.13,4.26 L143.07,4.2 L143,4.1 L142.94,4 L142.89,4 L142.84,3.95 L142.79,3.9 L142.73,3.84 L142.68,3.79 L142.63,3.74 L142.57,3.69 L142.51,3.63 L142.46,3.58 L142.4,3.52 L142.34,3.47 L142.29,3.42 L142.24,3.37 L142.18,3.31 L142.13,3.26 L142.08,3.21 L142,3.12 L142,3.06 L141.9,3 L141.85,3 L141.79,2.94 L141.74,2.89 L141.68,2.83 L141.63,2.78 L141.57,2.73 L141.52,2.68 L141.46,2.62 L141.41,2.57 L141.36,2.52 L141.25,2.41 L141.19,2.36 L141.13,2.3 L141.08,2.25 L141,2.07 L140.91,2 L140.86,2 C139.573492,0.643158834 137.750749,-0.072117018 135.884797,0.0476439001 C134.018845,0.167404818 132.302497,1.10982726 131.2,2.62 L1.27,176.57 C-0.60379455,179.057187 -0.382968986,182.539437 1.79,184.77" id="Path" fill="#27223E"></path>
            <path d="M171.9,137.89 L111.63,140.73 C109.579197,140.824845 107.609416,139.920784 106.344192,138.303998 C105.078968,136.687213 104.674939,134.557865 105.26,132.59 L142.35,8.18 C144.35,1.4 135.44,-3.09 131.2,2.58 L1.27,176.57 C-0.193879044,178.535612 -0.393741679,181.168903 0.756703744,183.332938 C1.90714917,185.496973 4.20182734,186.804115 6.65,186.69 L66.92,183.85 C68.9731567,183.754064 70.945419,184.659405 72.2111589,186.278837 C73.4768987,187.898268 73.8790333,190.030813 73.29,192 L36.19,316.4 C34.19,323.18 43.1,327.67 47.34,322 L177.27,148 C178.726306,146.035857 178.923326,143.40932 177.776334,141.249899 C176.629343,139.090479 174.342798,137.783106 171.9,137.89 Z" id="Path" fill="#F8E71C"></path>
        </g>
    </g>
</svg>

<svg xmlns="http://www.w3.org/2000/svg" viewBox="0 0 1099.89 327.97"><defs><style>.cls-1{fill:#27223e;}.cls-2{fill:#4c3f85;}</style></defs><title>full-logo-black</title><g id="Layer_2" data-name="Layer 2"><g id="Layer_1-2" data-name="Layer 1"><g id="logo-full-black"><path d="M318.89,220.33h69.5v13.8h-89.3v-8.8l68.5-125.4h-67.5V86.13h87.3v8.8Z"/><path d="M517.39,234.13l-14.7-47.9h-53.9l-14.6,47.9h-15.3l46.1-148h21.9l46.1,148ZM453,172.63h45.6L475.79,98Z"/><path d="M572.29,87.83a185.13,185.13,0,0,1,32.7-3.3q27.4,0,41,12.4t13.6,38.3q0,50.4-56.5,50.4-8.3,0-15.4-.7v49.2h-15.4Zm62.1,75.65q9.9-8.95,9.9-27.85,0-19.8-9.3-28.85t-29-9a119,119,0,0,0-18.3,1.4v72.4a121.33,121.33,0,0,0,15.9.9Q624.49,172.43,634.39,163.48Z"/><path d="M712.79,218.13q-16.9-17.9-16.9-57.7,0-38.9,17.6-57.55t50.6-18.65a109,109,0,0,1,27.3,3.3v25.1a97.4,97.4,0,0,0-25-3.2q-13.4,0-22,4.8t-13.05,15.95q-4.4,11.15-4.4,29.85,0,19.3,4.3,30.4T744,206.18q8.55,4.65,22.15,4.65,10.5,0,25.2-4.7v25.1a71.69,71.69,0,0,1-13.65,3.5,95.16,95.16,0,0,1-15.55,1.3Q729.69,236,712.79,218.13Z"/><path d="M938.59,86.13H975v148h-27.6V128.23l-32.7,84.5H891l-32.7-82.1v103.5h-27.6v-148h36.4l36.3,93.7Z"/><path d="M1028,234.53a90.14,90.14,0,0,1-17.1-4.3v-25a111.74,111.74,0,0,0,34.5,5.8q24.7,0,24.7-17.5a14.7,14.7,0,0,0-7.9-13.95,60.38,60.38,0,0,0-12-5.25l-10-3.3q-15.5-5.3-24.25-15.7t-8.75-26.4q0-14,6.2-24t18.55-15.35q12.35-5.35,30.55-5.35a128.76,128.76,0,0,1,16.25,1,86.69,86.69,0,0,1,13.85,2.8v25a93.53,93.53,0,0,0-27.3-3.8q-28.2,0-28.2,17.4a16.42,16.42,0,0,0,1.6,7.6,14.85,14.85,0,0,0,5.45,5.55,52.41,52.41,0,0,0,10.85,4.85l9.9,3.3q17.1,5.8,26.05,16.05t8.95,26.95q0,13.9-6.35,24.05a40.86,40.86,0,0,1-18.45,15.6Q1063,236,1046,236A115.61,115.61,0,0,1,1028,234.53Z"/><path class="cls-1" d="M23.74,206.72a6.22,6.22,0,0,0,4.91,2l40.22-1.9L36.19,316.4a6.12,6.12,0,0,0,2.45,7,32.36,32.36,0,0,0,6.81,3.83c2.81,1,6.31,1.63,10.77-3l143-154.2a6.31,6.31,0,0,0-.52-8.2l-.05-.05-.06-.06-.05-.05-.06-.06-.05-.05-.06-.05-.05-.05-.06-.06-.05-.05-.05-.05-.06-.06-.05-.05-.06-.05L198,161l-.06-.06-.05-.05-.06-.06-.05-.05-.05-.05-.05-.05-.06-.06-.05-.05-.06-.06-.05-.05-.05-.05-.16-.16-.05-.05-.06-.06-.05-.05-.05-.05-.05-.05-.06-.06-.05-.05-.06-.06-.05-.05-.06-.05-.05-.05-.06-.06-.06-.05-.05-.05-.06-.06-.05-.05-.06-.05-.05-.05-.06-.06-.06-.05-.06-.06-.05-.05L196,159l-.05-.05-.06-.06-.05-.05-.06-.06-.05-.05-.05-.05-.05-.05-.06-.06-.05-.05-.05-.05-.06-.06-.05-.05-.05-.05-.05-.05-.06-.06-.05-.05L195,158l-.05-.05-.05-.05-.11-.11-.06-.06-.05-.05-.05-.05-.05-.05-.06-.06-.05-.05-.06-.05-.06-.06-.05-.05-.05-.05-.05-.05-.06-.06-.05-.05L194,157l-.05-.05-.06-.05-.05-.05-.06-.06-.05-.05-.06-.06-.05-.05-.11-.11-.06-.06-.05-.05-.05-.05-.06-.06-.05-.05-.05-.05-.05-.05-.06-.06-.05-.05-.06-.06-.05-.05-.05-.05-.05-.05-.06-.06-.05-.05-.05-.05-.06-.06-.05-.05-.05-.05-.05-.05-.06-.06-.05-.05-.06-.06-.05-.05-.06-.05-.05-.05-.06-.06-.06-.05-.06-.06-.05-.05-.05-.05-.05-.05-.06-.06-.05-.05-.06-.05-.06-.06-.05-.05-.05-.05-.05-.05-.06-.06-.05-.05-.06-.06-.05-.05-.05-.05-.05-.05L191,154l-.05-.05-.06-.06-.05-.05-.05-.05-.05-.05-.05-.06-.06-.05-.11-.11-.05-.05-.05-.05-.11-.11-.06-.05-.06-.06-.05-.05-.05-.05L190,153l-.06-.06-.05-.05-.06-.06-.05-.05-.06-.05-.05-.05-.06-.06-.05-.05-.05-.05-.06-.06-.05-.05-.06-.05-.05-.05-.06-.06-.05-.05-.06-.06-.05-.05L189,152l-.05-.05-.06-.06-.05-.05-.05-.05-.06-.06-.05-.05-.05-.05-.05-.05-.06-.06-.05-.05-.06-.06-.05-.05-.05-.05-.05-.05-.06-.06-.05-.05-.06-.06-.05-.05-.06-.05-.05-.05-.06-.06-.06-.05-.05-.05-.06-.06-.05-.05-.06-.05-.05-.05-.06-.06-.06-.05-.06-.06-.05-.05-.05-.05-.05-.05-.06-.06-.05-.05-.06-.06L187,150l-.05-.05-.05-.05-.06-.06-.05-.05-.05-.05-.06-.06-.05-.05-.05-.05-.05-.05-.06-.06-.05-.05-.06-.06-.05-.05-.05-.05-.05-.05-.05-.06-.06-.05L186,149l-.05-.05-.05-.05-.05-.05-.06-.06-.05-.05-.06-.05-.06-.06-.05-.05-.05-.05-.05-.05-.06-.06-.16-.16-.06-.05-.05-.05-.06-.06L185,148l-.05-.05-.06-.06-.05-.05-.06-.05-.05-.05-.06-.06-.05-.05-.06-.06-.05-.05-.05-.05-.05-.05-.11-.11-.06-.06-.05-.05-.05-.05-.11-.11-.05-.05-.05-.05-.06-.06-.05-.05-.05-.05-.05-.05-.06-.06-.05-.05-.06-.06-.05-.05-.06-.05-.05-.05-.06-.06-.06-.05-.06-.06-.05-.05-.05-.05-.05-.05-.06-.06-.05-.05-.06-.05-.06-.06-.05-.05-.05-.05-.05-.05-.06-.06-.05-.05-.06-.06-.05-.05-.05-.05-.05-.05-.06-.06-.05-.05-.06-.06-.05-.05-.05-.05L182,145l-.05-.05-.06-.06-.05-.05-.06-.06-.05-.05-.05-.05-.05-.05-.05-.06-.06-.05-.06-.06-.05-.05-.05-.05-.05-.05-.06-.06-.05-.05L181,144l-.05-.05-.05-.05-.06-.06-.05-.05-.06-.06-.05-.05-.06-.05-.05-.05-.06-.06-.05-.05-.06-.06-.05-.05-.05-.05-.05-.05-.06-.06-.05-.05-.05-.05-.06-.06-.05-.05-.05-.05-.05-.05-.06-.06-.05-.05-.06-.06-.05-.05-.05-.05-.05-.05-.06-.06-.05-.05-.06-.06-.05-.05-.06-.05-.05-.05-.06-.06-.06-.05-.05-.05-.06-.06-.05-.05-.06-.05-.05-.05-.06-.06-.06-.05-.06-.06-.11-.11-.05-.05-.06-.06-.05-.05-.06-.05-.06-.06-.05-.05-.05-.05-.11-.11L178,141l-.06-.06-.05-.05-.11-.11-.06-.06-.05-.05-.06-.06-.05-.05-.05-.05-.05-.05-.05-.06-.06-.05-.05-.05-.06-.06-.05-.05-.05-.05-.05-.05L177,140l-.06-.05-.06-.06-.05-.05a6.22,6.22,0,0,0-4.91-2l-40.22,1.9L164.35,30.18a6.09,6.09,0,0,0-1.55-6.27l-.06-.06-.05-.05-.06-.06-.05-.05-.05-.05-.05-.05-.06-.06-.05-.05-.05-.05-.06-.06-.05-.05-.05-.05-.06-.06-.05-.05-.05-.05-.06-.06-.05-.05-.05-.05-.05-.05-.22-.22-.05-.05-.05-.05-.27-.27-.05-.05-.06-.06-.33-.33-.06-.06-.05-.05-.06-.06-.05-.05-.16-.16-.05-.05-.05-.05-.11-.11-.05-.05-.06-.05-.06-.06-.16-.16-.05-.05-.05-.05-.06-.06-.05-.05-.05-.05-.11-.11-.05-.05-.16-.16-.11-.11-.06-.05-.05-.05-.06-.06-.05-.05-.11-.11-.05-.05-.06-.05-.22-.22-.05-.05-.05-.05-.06-.06-.11-.11-.06-.06-.11-.11-.16-.16-.06-.06-.16-.16-.06-.06-.11-.11-.06-.06-.05-.05-.16-.16-.05-.05-.11-.11-.11-.11-.06-.06-.05-.05-.06-.06-.11-.11-.05-.05-.06-.06-.05-.05-.16-.16-.06-.05-.05-.05-.22-.22-.05-.05-.06-.05-.11-.11-.11-.11-.05-.05-.05-.05-.06-.06-.11-.11-.11-.11-.11-.11-.06-.06L154.9,16l-.22-.22-.05-.05-.06-.06-.05-.05-.16-.16-.11-.11-.05-.05-.05-.05-.06-.05-.06-.06-.05-.05-.06-.06-.05-.05-.05-.05-.05-.05-.06-.06-.05-.05-.05-.05-.16-.16-.05-.05-.16-.16-.05-.05-.05-.05-.05-.05-.06-.06-.05-.05-.06-.06-.06-.05-.05-.05-.05-.05-.11-.11-.05-.05-.06-.06-.06-.05-.05-.05-.11-.11-.05-.05-.06-.06-.05-.05-.06-.05L152,13.1l-.06-.06-.05-.05-.05-.05-.06-.06-.05-.05-.06-.05-.06-.06-.05-.05-.05-.05-.06-.06-.05-.05-.05-.05-.06-.05-.06-.06-.05-.05-.06-.06-.06-.05-.05-.05-.05-.05L150.9,12l-.05-.05-.05-.05-.06-.06-.06-.05-.05-.05-.06-.06-.05-.05-.44-.44-.05-.05-.05-.05-.11-.11-.05-.05-.05-.05-.16-.16-.06-.05-.06-.06-.05-.05-.06-.06-.16-.16-.06-.06-.05-.05-.06-.06-.27-.27-.05-.05-.06-.06-.05-.05-.05-.05-.16-.16-.06-.06-.06-.05-.05-.05-.05-.05L148,9.1,147.94,9,147.88,9l-.05-.05-.22-.22-.05-.05-.11-.11-.06-.06-.05-.05-.11-.11-.05-.05-.06-.05-.16-.16L146.89,8l-.05-.05-.05-.05-.11-.11-.05-.05-.06-.06-.06-.05-.16-.16-.05-.05-.06-.06-.05-.05-.06-.05-.05-.05L146,7.12,146,7.07,145.91,7,145.85,7l-.05-.05-.06-.05-.05-.05-.06-.06-.05-.05-.06-.06-.05-.05-.05-.05-.06-.05-.06-.06-.05-.05-.05-.05-.06-.06-.05-.05L145,6.13,145,6.08,144.92,6,144.86,6l-.06-.06-.11-.11-.05-.05-.06-.06-.11-.11-.05-.05-.05-.05-.05-.05-.06-.06-.05-.05-.05-.05-.06-.06L144,5.15,144,5.09,143.93,5,143.88,5l-.16-.16-.05-.05-.05-.05-.06-.06-.05-.05-.06-.06-.05-.05-.06-.05-.05-.05-.06-.06-.05-.05-.05-.05-.06-.06L143,4.1,142.94,4,142.89,4l-.05-.05-.05-.05-.06-.06-.05-.05-.05-.05-.06-.05-.06-.06-.05-.05-.06-.06-.06-.05-.05-.05-.05-.05-.06-.06-.05-.05-.05-.05L142,3.12,142,3.06,141.9,3,141.85,3l-.06-.06-.05-.05-.06-.06-.05-.05-.06-.05-.05-.05-.06-.06-.05-.05-.05-.05-.11-.11-.06-.05-.06-.06-.05-.05L141,2.07,140.91,2,140.86,2a6.3,6.3,0,0,0-9.66.62L1.27,176.57a6.31,6.31,0,0,0,.52,8.2"/><path class="cls-2" d="M171.9,137.89l-60.27,2.84a6.34,6.34,0,0,1-6.37-8.14L142.35,8.18c2-6.78-6.91-11.27-11.15-5.6L1.27,176.57a6.34,6.34,0,0,0,5.38,10.12l60.27-2.84A6.34,6.34,0,0,1,73.29,192L36.19,316.4c-2,6.78,6.91,11.27,11.15,5.6L177.27,148A6.34,6.34,0,0,0,171.9,137.89Z"/></g></g></g></svg>
